svgs/tailscale.svg

<?xml version="1.0" encoding="UTF-8" standalone="no"?>
<!-- Created with Inkscape (http://www.inkscape.org/) -->

<svg
   width="24"
   height="24"
   viewBox="0 0 24 24"
   version="1.1"
   id="svg5"
   inkscape:version="1.2.1 (9c6d41e410, 2022-07-14, custom)"
   sodipodi:docname="tailscale.svg"
   xml:space="preserve"
   xmlns:inkscape="http://www.inkscape.org/namespaces/inkscape"
   xmlns:sodipodi="http://sodipodi.sourceforge.net/DTD/sodipodi-0.dtd"
   xmlns="http://www.w3.org/2000/svg"
   xmlns:svg="http://www.w3.org/2000/svg"><sodipodi:namedview
     id="namedview7"
     pagecolor="#505050"
     bordercolor="#ffffff"
     borderopacity="1"
     inkscape:showpageshadow="0"
     inkscape:pageopacity="0"
     inkscape:pagecheckerboard="1"
     inkscape:deskcolor="#505050"
     inkscape:document-units="px"
     showgrid="true"
     inkscape:zoom="22.627417"
     inkscape:cx="19.091883"
     inkscape:cy="12.639534"
     inkscape:window-width="1920"
     inkscape:window-height="1020"
     inkscape:window-x="0"
     inkscape:window-y="28"
     inkscape:window-maximized="1"
     inkscape:current-layer="svg5"><inkscape:grid
       type="xygrid"
       id="grid132"
       empspacing="4" /></sodipodi:namedview><defs
     id="defs2" /><path
     d="m 14.5,5.5000002 c 0,1.3807119 -1.119288,2.5 -2.5,2.5 -1.380712,0 -2.5000001,-1.1192881 -2.5000001,-2.5 0,-1.3807119 1.1192881,-2.5 2.5000001,-2.5 1.380712,0 2.5,1.1192881 2.5,2.5 z m 6.5,0 c 0,1.3807119 -1.119288,2.5 -2.5,2.5 -1.380712,0 -2.5,-1.1192881 -2.5,-2.5 0,-1.3807119 1.119288,-2.5 2.5,-2.5 1.380712,0 2.5,1.1192881 2.5,2.5 z M 20.99979,12 c 0,1.380712 -1.119288,2.5 -2.5,2.5 -1.380712,0 -2.5,-1.119288 -2.5,-2.5 0,-1.380712 1.119288,-2.4999998 2.5,-2.4999998 1.380712,0 2.5,1.1192878 2.5,2.4999998 z M 7.9999999,18.5 c 0,1.380712 -1.1192881,2.5 -2.5,2.5 -1.3807119,0 -2.5,-1.119288 -2.5,-2.5 0,-1.380712 1.1192881,-2.5 2.5,-2.5 1.3807119,0 2.5,1.119288 2.5,2.5 z M 8.0002107,5.5000002 c 0,1.3807119 -1.1192881,2.5 -2.5,2.5 -1.3807119,0 -2.5,-1.1192881 -2.5,-2.5 0,-1.3807119 1.1192881,-2.5 2.5,-2.5 1.3807119,0 2.5,1.1192881 2.5,2.5 z M 20.99979,18.5 c 0,1.380712 -1.119288,2.5 -2.5,2.5 -1.380712,0 -2.5,-1.119288 -2.5,-2.5 0,-1.380712 1.119288,-2.5 2.5,-2.5 1.380712,0 2.5,1.119288 2.5,2.5 z M 7.9999999,12 c 0,1.380712 -1.1192881,2.5 -2.5,2.5 -1.3807119,0 -2.5,-1.119288 -2.5,-2.5 0,-1.380712 1.1192881,-2.4999998 2.5,-2.4999998 1.3807119,0 2.5,1.1192878 2.5,2.4999998 z m 6.4997881,0 c 0,1.380712 -1.119288,2.5 -2.5,2.5 -1.380712,0 -2.4999998,-1.119288 -2.4999998,-2.5 0,-1.380712 1.1192878,-2.4999996 2.4999998,-2.4999998 1.380712,0 2.5,1.1192878 2.5,2.4999998 z m 0,6.5 c 0,1.380712 -1.119288,2.5 -2.5,2.5 -1.380712,0 -2.4999998,-1.119288 -2.4999998,-2.5 0,-1.380712 1.1192878,-2.5 2.4999998,-2.5 1.380712,0 2.5,1.119288 2.5,2.5 z M 14.25,12 c 0,1.242641 -1.007359,2.25 -2.25,2.25 C 10.757359,14.25 9.7500002,13.242641 9.7500003,12 9.7500002,10.757359 10.757359,9.7500001 12,9.75 c 1.242641,-10e-8 2.25,1.007359 2.25,2.25 z m -6.5000001,0 c 0,1.242641 -1.007359,2.25 -2.25,2.25 C 4.2573589,14.25 3.25,13.242641 3.2500001,12 3.25,10.757359 4.2573589,9.75 5.4999999,9.7499999 c 1.242641,-1e-7 2.25,1.0073591 2.25,2.2500001 z M 20.75,12 c 0,1.242641 -1.007359,2.25 -2.25,2.25 -1.242641,0 -2.25,-1.007359 -2.25,-2.25 0,-1.242641 1.007359,-2.2499999 2.25,-2.25 1.242641,-10e-8 2.25,1.007359 2.25,2.25 z m -6.5,6.5 c 0,1.242641 -1.007359,2.25 -2.25,2.25 -1.242641,0 -2.2499999,-1.007359 -2.2499998,-2.25 -1e-7,-1.242641 1.0073588,-2.25 2.2499998,-2.25 1.242641,0 2.25,1.007359 2.25,2.25 z"
     style="fill:#000000;fill-opacity:1;fill-rule:evenodd;stroke:none;stroke-width:0.0473782"
     id="path496"
     sodipodi:nodetypes="sssssssssssssssssssssssssssssssssssssssssssssssssssssssssssssssss" /></svg>

<svg width="24" height="24" viewBox="0 0 24 24" fill="none" xmlns="http://www.w3.org/2000/svg">
<path fill-rule="evenodd" clip-rule="evenodd" d="M14.5 5.5C14.5 6.88071 13.3807 8 12 8C10.6193 8 9.5 6.88071 9.5 5.5C9.5 4.11929 10.6193 3 12 3C13.3807 3 14.5 4.11929 14.5 5.5ZM21 5.5C21 6.88071 19.8807 8 18.5 8C17.1193 8 16 6.88071 16 5.5C16 4.11929 17.1193 3 18.5 3C19.8807 3 21 4.11929 21 5.5ZM8 18.5C8 19.8807 6.88071 21 5.5 21C4.11929 21 3 19.8807 3 18.5C3 17.1193 4.11929 16 5.5 16C6.88071 16 8 17.1193 8 18.5ZM8.00021 5.5C8.00021 6.88071 6.88092 8 5.50021 8C4.1195 8 3.00021 6.88071 3.00021 5.5C3.00021 4.11929 4.1195 3 5.50021 3C6.88092 3 8.00021 4.11929 8.00021 5.5ZM20.9998 18.5C20.9998 19.8807 19.8805 21 18.4998 21C17.1191 21 15.9998 19.8807 15.9998 18.5C15.9998 17.1193 17.1191 16 18.4998 16C19.8805 16 20.9998 17.1193 20.9998 18.5Z" fill="#FFF1C0"/>
<path fill-rule="evenodd" clip-rule="evenodd" d="M5.50021 14.5C6.88093 14.5 8.00021 13.3807 8.00021 12C8.00021 10.6193 6.88093 9.5 5.50021 9.5C4.1195 9.5 3.00021 10.6193 3.00021 12C3.00021 13.3807 4.1195 14.5 5.50021 14.5ZM7.00021 12C7.00021 12.8284 6.32864 13.5 5.50021 13.5C4.67179 13.5 4.00021 12.8284 4.00021 12C4.00021 11.1716 4.67179 10.5 5.50021 10.5C6.32864 10.5 7.00021 11.1716 7.00021 12Z" fill="#FFF1C0"/>
<path fill-rule="evenodd" clip-rule="evenodd" d="M14.5 12C14.5 13.3807 13.3807 14.5 12 14.5C10.6193 14.5 9.5 13.3807 9.5 12C9.5 10.6193 10.6193 9.5 12 9.5C13.3807 9.5 14.5 10.6193 14.5 12ZM13.5 12C13.5 12.8284 12.8284 13.5 12 13.5C11.1716 13.5 10.5 12.8284 10.5 12C10.5 11.1716 11.1716 10.5 12 10.5C12.8284 10.5 13.5 11.1716 13.5 12Z" fill="#FFF1C0"/>
<path fill-rule="evenodd" clip-rule="evenodd" d="M21 12C21 13.3807 19.8807 14.5 18.5 14.5C17.1193 14.5 16 13.3807 16 12C16 10.6193 17.1193 9.5 18.5 9.5C19.8807 9.5 21 10.6193 21 12ZM20 12C20 12.8284 19.3284 13.5 18.5 13.5C17.6716 13.5 17 12.8284 17 12C17 11.1716 17.6716 10.5 18.5 10.5C19.3284 10.5 20 11.1716 20 12Z" fill="#FFF1C0"/>
<path fill-rule="evenodd" clip-rule="evenodd" d="M12 21C13.3807 21 14.5 19.8807 14.5 18.5C14.5 17.1193 13.3807 16 12 16C10.6193 16 9.5 17.1193 9.5 18.5C9.5 19.8807 10.6193 21 12 21ZM13.5 18.5C13.5 19.3284 12.8284 20 12 20C11.1716 20 10.5 19.3284 10.5 18.5C10.5 17.6716 11.1716 17 12 17C12.8284 17 13.5 17.6716 13.5 18.5Z" fill="#FFF1C0"/>
</svg>
